usr/share/icons/biglinux-icons-material/scalable/places/user-identity.svg

<svg width="24" height="24" viewBox="0 0 24 24" fill="none" xmlns="http://www.w3.org/2000/svg">
<path opacity="0.8" fill-rule="evenodd" clip-rule="evenodd" d="M7.6 1C3.95492 1 1 3.95492 1 7.6V16.4C1 20.0451 3.95492 23 7.6 23H16.4C20.0451 23 23 20.0451 23 16.4V7.6C23 3.95492 20.0451 1 16.4 1H7.6Z" fill="#198EE6"/>
<g opacity="0.6" filter="url(#filter0_f_211_482)">
<path fill-rule="evenodd" clip-rule="evenodd" d="M19.5016 18.5C19.5016 16.0436 15.3334 14.7905 13.6708 14.3451C13.6708 14.3451 13.7397 12.9678 13.9004 12.4627C14.0611 11.9577 14.084 11.3838 14.1529 11.2231C14.2218 11.0625 15.0334 10.3278 15.0793 9.63922C15.0682 9.22819 14.987 9.13098 14.7842 9.13098V6.99645C14.7842 5.84407 13.1041 4.83773 12.0015 4.83773C10.8986 4.83773 9.21876 5.84405 9.21876 6.99645V9.13098C9.01578 9.13098 8.93457 9.22831 8.92365 9.63922C8.96964 10.3278 9.78105 11.0624 9.85013 11.2231C9.91885 11.3838 9.94176 11.9576 10.1025 12.4627C10.2632 12.9677 10.3321 14.3451 10.3321 14.3451C8.66945 14.7906 4.50127 16.0437 4.50127 18.5H19.5016Z" fill="#F9F9F9"/>
</g>
<path fill-rule="evenodd" clip-rule="evenodd" d="M12.0009 4.83784C10.8981 4.83784 9.21783 5.84462 9.21783 6.99694V9.13166C9.01485 9.13166 8.93384 9.22856 8.92291 9.63947C8.96891 10.328 9.7806 11.0628 9.84967 11.2235C9.9184 11.3841 9.94091 11.9576 10.1016 12.4627C10.2623 12.9677 10.3311 14.3455 10.3311 14.3455C9.7346 14.5054 8.81429 14.7739 7.88099 15.16C9.07786 16.0309 10.52 16.5 12.0002 16.4998C13.4805 16.4997 14.9226 16.0303 16.1194 15.159C15.1867 14.7735 14.2663 14.5052 13.6702 14.3455C13.6702 14.3455 13.739 12.9678 13.8997 12.4627C14.0604 11.9577 14.0837 11.3841 14.1526 11.2235C14.2215 11.0628 15.0334 10.3281 15.0794 9.63947C15.0683 9.22844 14.9873 9.13166 14.7845 9.13166V6.99694C14.7845 5.84456 13.1035 4.83784 12.0009 4.83784Z" fill="white"/>
<defs>
<filter id="filter0_f_211_482" x="3.21146" y="3.54792" width="17.5799" height="16.2419" filterUnits="userSpaceOnUse" color-interpolation-filters="sRGB">
<feFlood flood-opacity="0" result="BackgroundImageFix"/>
<feBlend mode="normal" in="SourceGraphic" in2="BackgroundImageFix" result="shape"/>
<feGaussianBlur stdDeviation="0.644907" result="effect1_foregroundBlur_211_482"/>
</filter>
</defs>
</svg>

<svg xmlns="http://www.w3.org/2000/svg" width="24" height="24" fill="none"><path fill="#198EE6" fill-rule="evenodd" d="M7.6 1A6.6 6.6 0 0 0 1 7.6v8.8A6.6 6.6 0 0 0 7.6 23h8.8a6.6 6.6 0 0 0 6.6-6.6V7.6A6.6 6.6 0 0 0 16.4 1H7.6Z" clip-rule="evenodd" opacity=".8"/><g filter="url(#a)" opacity=".6"><path fill="#F9F9F9" fill-rule="evenodd" d="M19.502 18.5c0-2.456-4.169-3.71-5.831-4.155 0 0 .069-1.377.23-1.882.16-.505.183-1.08.252-1.24.069-.16.88-.895.926-1.584-.01-.41-.092-.508-.295-.508V6.996c0-1.152-1.68-2.158-2.783-2.158-1.102 0-2.782 1.006-2.782 2.158v2.135c-.203 0-.284.097-.295.508.046.689.857 1.423.926 1.584.069.16.092.735.252 1.24.161.505.23 1.882.23 1.882-1.663.446-5.83 1.699-5.83 4.155h15Z" clip-rule="evenodd"/></g><path fill="#fff" fill-rule="evenodd" d="M12 4.838c-1.102 0-2.782 1.007-2.782 2.159v2.135c-.203 0-.284.097-.295.507.046.689.858 1.424.927 1.585.068.16.09.734.252 1.239.16.505.23 1.883.23 1.883-.597.16-1.518.428-2.451.814a7 7 0 0 0 8.238-.001 20.278 20.278 0 0 0-2.449-.814s.069-1.377.23-1.882c.16-.505.184-1.079.253-1.24.069-.16.88-.895.926-1.584-.01-.41-.092-.507-.295-.507V6.997c0-1.152-1.68-2.16-2.783-2.16Z" clip-rule="evenodd"/><defs><filter id="a" width="17.58" height="16.242" x="3.211" y="3.548" color-interpolation-filters="sRGB" filterUnits="userSpaceOnUse"><feFlood flood-opacity="0" result="BackgroundImageFix"/><feBlend in="SourceGraphic" in2="BackgroundImageFix" result="shape"/><feGaussianBlur result="effect1_foregroundBlur_211_482" stdDeviation=".645"/></filter></defs></svg>
